symbols/web/surround_sound/materialsymbolssharp/surround_sound_grad200fill1_24px.svg

<svg xmlns="http://www.w3.org/2000/svg" height="24" width="24"><path d="M12 15.5q1.45 0 2.475-1.025Q15.5 13.45 15.5 12q0-1.45-1.025-2.475Q13.45 8.5 12 8.5q-1.45 0-2.475 1.025Q8.5 10.55 8.5 12q0 1.45 1.025 2.475Q10.55 15.5 12 15.5Zm5.075 2q1.125-1.05 1.75-2.45.625-1.4.625-3.05t-.625-3.05q-.625-1.4-1.75-2.45l-1.85 1.85q.75.675 1.163 1.6.412.925.412 2.05 0 1.125-.412 2.05-.413.925-1.163 1.6Zm-10.125 0 1.85-1.85q-.75-.675-1.175-1.6Q7.2 13.125 7.2 12q0-1.125.425-2.05.425-.925 1.175-1.6L6.95 6.5Q5.825 7.55 5.188 8.95 4.55 10.35 4.55 12t.638 3.05q.637 1.4 1.762 2.45Zm-5.6 3.1V3.4h21.3v17.2Z"/></svg>

<svg xmlns="http://www.w3.org/2000/svg" height="24" width="24"><path d="M12 15.5Q13.45 15.5 14.475 14.475Q15.5 13.45 15.5 12Q15.5 10.55 14.475 9.525Q13.45 8.5 12 8.5Q10.55 8.5 9.525 9.525Q8.5 10.55 8.5 12Q8.5 13.45 9.525 14.475Q10.55 15.5 12 15.5ZM17.075 17.5Q18.2 16.45 18.825 15.05Q19.45 13.65 19.45 12Q19.45 10.35 18.825 8.95Q18.2 7.55 17.075 6.5L15.225 8.35Q15.975 9.025 16.388 9.95Q16.8 10.875 16.8 12Q16.8 13.125 16.388 14.05Q15.975 14.975 15.225 15.65ZM6.95 17.5 8.8 15.65Q8.05 14.975 7.625 14.05Q7.2 13.125 7.2 12Q7.2 10.875 7.625 9.95Q8.05 9.025 8.8 8.35L6.95 6.5Q5.825 7.55 5.188 8.95Q4.55 10.35 4.55 12Q4.55 13.65 5.188 15.05Q5.825 16.45 6.95 17.5ZM1.35 20.6V3.4H22.65V20.6Z"/></svg>
